X: 26680
T: Midwinter
R: waltz
M: 3/4
K: Gmajor
GA|:B3cd2|d3BA2|A3BA2|G4G2|A3BA2|A3BA2|G3ABc|A4GA|
B3cd2|d3BA2|A3BA2|G4G2|A3BA2|A3BA2|G3AG2|G4z2:|
|:c3Bc2|c3Bc2|e3de2|A3 ABc|d3 ed2|B3 AG2|A3BG2|A4AB|
c3Bc2|c3Bc2|e3de2|A3 ABc|d3 ed2|B3 AG2|A3 BA2|G4 z2:|

